!!!OTL: 211a. Strafe der Falschheit.
!!!ARE: Europa, Mitteleuropa, Deutschland, Nordsee, Budjadinger - Land
!!!SCT: E0211A
!!!TXL: @@DE
!!!YEM: Copyright 1995, estate of Helmut Schaffrath.
**kern	**text
*ICvox	*
*M4/4	*
*met(c)	*
*k[b-]	*
*F:	*
!LO:TX:a:t=Etwas bewegt.	!
!LO:TX:a:t=Von der Nordſee (Budjadinger-Land).	!
{8fL	Ein
8aJ	.
=1	=1
4cc	Mäd-
8.cc	-chen
16dd	von
4cc	acht-
8b-L	-ʒehn
8gJ	.
=2	=2
(4.f	Jah-
8a)	.
4g}	-ren,
{4g	das
=3	=3
4a	hat-
8.ff	-te
16ff	ʒwei
4ee	Knaben
8.dd	.
16bn	ſo
=4	=4
2cc	lieb,
4r}	.
{4cc	der
=5	=5
4ff	ei-
8.ff	-ne
16ff	das
4ee	war
4cc	ein
=6	=6
2dd	Schif-
4cc	-fer,
4r}	.
=7	=7
{(4.b-	(Schif-
8dd)	.
4cc	-fer),
8r	.
8a	der
=8	=8
4cc	and-
8.f	-re
16a	ein
8aL	Amt-
8gJ	.
8gL	-manns-
8eJ	.
=9	=9
2f	-ſohn.
4r}	.
==	==
!!!AGN: erzaehlendes Volks - Lied, Mahn -, Moral - Lied, Strafe; Untreue
!!!ONB: ESAC (Essen Associative Code) Database: ERK1
!!!AMT: simple quadruple
!!!AIN: vox
!!!EED: Helmut Schaffrath
!!!EEV: 1.0
!!!GTL: Gottesgerichte und Hoellenstrafen (Mahnlieder)
!!!URL-scan: https://rosdok.uni-rostock.de/mcrviewer/recordIdentifier/rosdok_ppn745146120/iview2/phys_0692.iview2?x=-401.4153369901496&y=1906.4686480555683&scale=0.4895165665220185&rotation=0&layout=singlePageLayout
!!!ENC: Anna Maria Matuszewska
!!!EEV: 2024/06/12
*-	*-
